(BOTTOM-MOUNTING-HOLES)
(T1  D=2.5 CR=0 TAPER=118DEG - ZMIN=-10 - DRILL)
G90 G94 G91.1 G40 G49 G17
G21

(DRILL1)
M5
M9
T1
S7760 M3
G54
M9
G0 X73.5 Y-113.5
G43 Z15 H1
Z5
G98 G73 X73.5 Y-113.5 Z-10 R1 Q0.625 F120
Y0
Y113.5
X-73.5
Y0
Y-113.5
G80
Z15

M9
M30
