(2D CONTOUR1)
(T17  D=2 CR=0 - ZMIN=-4 - FLAT END MILL)
G90 G94 G91.1 G40 G49 G17
G21

(ALL)
M5
M9
T17
(SINGLE FLUTE)
S20000 M3
G54
M8
G0 X23.64 Y76.814
G43 Z15 H1
Z2
G1 Z-0.8 F360
X23.645 Y76.818 Z-0.852
X23.661 Y76.83 Z-0.9
X23.687 Y76.849 Z-0.941
X23.72 Y76.874 Z-0.973
X23.759 Y76.903 Z-0.993
X23.8 Y76.934 Z-1
X23.96 Y77.054 F150
G3 X24 Y77.334 I-0.12 J0.16
X-24 Y41.334 I-24 J-18 F1700
X24 Y77.334 I24 J18
X23.72 Y77.374 I-0.16 J-0.12 F600
G1 X23.56 Y77.254
X23.519 Y77.223 Z-0.993
X23.48 Y77.194 Z-0.973
X23.447 Y77.169 Z-0.941
X23.421 Y77.15 Z-0.9
X23.405 Y77.138 Z-0.852
X23.4 Y77.134 Z-0.8
X23.64 Y76.814 F1700
Z-1.8 F360
X23.645 Y76.818 Z-1.852
X23.661 Y76.83 Z-1.9
X23.687 Y76.849 Z-1.941
X23.72 Y76.874 Z-1.973
X23.759 Y76.903 Z-1.993
X23.8 Y76.934 Z-2
X23.96 Y77.054 F150
G3 X24 Y77.334 I-0.12 J0.16
X-24 Y41.334 I-24 J-18 F1700
X24 Y77.334 I24 J18
X23.72 Y77.374 I-0.16 J-0.12 F600
G1 X23.56 Y77.254
X23.519 Y77.223 Z-1.993
X23.48 Y77.194 Z-1.973
X23.447 Y77.169 Z-1.941
X23.421 Y77.15 Z-1.9
X23.405 Y77.138 Z-1.852
X23.4 Y77.134 Z-1.8
X23.64 Y76.814 F1700
Z-2.8 F360
X23.645 Y76.818 Z-2.852
X23.661 Y76.83 Z-2.9
X23.687 Y76.849 Z-2.941
X23.72 Y76.874 Z-2.973
X23.759 Y76.903 Z-2.993
X23.8 Y76.934 Z-3
X23.96 Y77.054 F150
G3 X24 Y77.334 I-0.12 J0.16
X-24 Y41.334 I-24 J-18 F1700
X24 Y77.334 I24 J18
X23.72 Y77.374 I-0.16 J-0.12 F600
G1 X23.56 Y77.254
X23.519 Y77.223 Z-2.993
X23.48 Y77.194 Z-2.973
X23.447 Y77.169 Z-2.941
X23.421 Y77.15 Z-2.9
X23.405 Y77.138 Z-2.852
X23.4 Y77.134 Z-2.8
X23.64 Y76.814 F1700
Z-3.8 F360
X23.645 Y76.818 Z-3.852
X23.661 Y76.83 Z-3.9
X23.687 Y76.849 Z-3.941
X23.72 Y76.874 Z-3.973
X23.759 Y76.903 Z-3.993
X23.8 Y76.934 Z-4
X23.96 Y77.054 F150
G3 X24 Y77.334 I-0.12 J0.16
X-24 Y41.334 I-24 J-18 F1700
X24 Y77.334 I24 J18
X23.72 Y77.374 I-0.16 J-0.12 F600
G1 X23.56 Y77.254
X23.519 Y77.223 Z-3.993
X23.48 Y77.194 Z-3.973
X23.447 Y77.169 Z-3.941
X23.421 Y77.15 Z-3.9
X23.405 Y77.138 Z-3.852
X23.4 Y77.134 Z-3.8
G0 Z5
X36.44 Y95.164
Z2
G1 Z-0.8 F360
X36.445 Y95.168 Z-0.852
X36.461 Y95.18 Z-0.9
X36.487 Y95.199 Z-0.941
X36.52 Y95.224 Z-0.973
X36.559 Y95.253 Z-0.993
X36.6 Y95.284 Z-1
X36.76 Y95.404 F150
G3 X36.8 Y95.684 I-0.12 J0.16
X33.2 Y92.984 I-1.8 J-1.35 F1700
X36.8 Y95.684 I1.8 J1.35
X36.52 Y95.724 I-0.16 J-0.12 F600
G1 X36.36 Y95.604
X36.319 Y95.573 Z-0.993
X36.28 Y95.544 Z-0.973
X36.247 Y95.519 Z-0.941
X36.221 Y95.5 Z-0.9
X36.205 Y95.488 Z-0.852
X36.2 Y95.484 Z-0.8
X36.44 Y95.164 F1700
Z-1.8 F360
X36.445 Y95.168 Z-1.852
X36.461 Y95.18 Z-1.9
X36.487 Y95.199 Z-1.941
X36.52 Y95.224 Z-1.973
X36.559 Y95.253 Z-1.993
X36.6 Y95.284 Z-2
X36.76 Y95.404 F150
G3 X36.8 Y95.684 I-0.12 J0.16
X33.2 Y92.984 I-1.8 J-1.35 F1700
X36.8 Y95.684 I1.8 J1.35
X36.52 Y95.724 I-0.16 J-0.12 F600
G1 X36.36 Y95.604
X36.319 Y95.573 Z-1.993
X36.28 Y95.544 Z-1.973
X36.247 Y95.519 Z-1.941
X36.221 Y95.5 Z-1.9
X36.205 Y95.488 Z-1.852
X36.2 Y95.484 Z-1.8
X36.44 Y95.164 F1700
Z-2.8 F360
X36.445 Y95.168 Z-2.852
X36.461 Y95.18 Z-2.9
X36.487 Y95.199 Z-2.941
X36.52 Y95.224 Z-2.973
X36.559 Y95.253 Z-2.993
X36.6 Y95.284 Z-3
X36.76 Y95.404 F150
G3 X36.8 Y95.684 I-0.12 J0.16
X33.2 Y92.984 I-1.8 J-1.35 F1700
X36.8 Y95.684 I1.8 J1.35
X36.52 Y95.724 I-0.16 J-0.12 F600
G1 X36.36 Y95.604
X36.319 Y95.573 Z-2.993
X36.28 Y95.544 Z-2.973
X36.247 Y95.519 Z-2.941
X36.221 Y95.5 Z-2.9
X36.205 Y95.488 Z-2.852
X36.2 Y95.484 Z-2.8
X36.44 Y95.164 F1700
Z-3.8 F360
X36.445 Y95.168 Z-3.852
X36.461 Y95.18 Z-3.9
X36.487 Y95.199 Z-3.941
X36.52 Y95.224 Z-3.973
X36.559 Y95.253 Z-3.993
X36.6 Y95.284 Z-4
X36.76 Y95.404 F150
G3 X36.8 Y95.684 I-0.12 J0.16
X33.2 Y92.984 I-1.8 J-1.35 F1700
X36.8 Y95.684 I1.8 J1.35
X36.52 Y95.724 I-0.16 J-0.12 F600
G1 X36.36 Y95.604
X36.319 Y95.573 Z-3.993
X36.28 Y95.544 Z-3.973
X36.247 Y95.519 Z-3.941
X36.221 Y95.5 Z-3.9
X36.205 Y95.488 Z-3.852
X36.2 Y95.484 Z-3.8
G0 Z5
X36.44 Y25.164
Z2
G1 Z-0.8 F360
X36.445 Y25.168 Z-0.852
X36.461 Y25.18 Z-0.9
X36.487 Y25.199 Z-0.941
X36.52 Y25.224 Z-0.973
X36.559 Y25.253 Z-0.993
X36.6 Y25.284 Z-1
X36.76 Y25.404 F150
G3 X36.8 Y25.684 I-0.12 J0.16
X33.2 Y22.984 I-1.8 J-1.35 F1700
X36.8 Y25.684 I1.8 J1.35
X36.52 Y25.724 I-0.16 J-0.12 F600
G1 X36.36 Y25.604
X36.319 Y25.573 Z-0.993
X36.28 Y25.544 Z-0.973
X36.247 Y25.519 Z-0.941
X36.221 Y25.5 Z-0.9
X36.205 Y25.488 Z-0.852
X36.2 Y25.484 Z-0.8
X36.44 Y25.164 F1700
Z-1.8 F360
X36.445 Y25.168 Z-1.852
X36.461 Y25.18 Z-1.9
X36.487 Y25.199 Z-1.941
X36.52 Y25.224 Z-1.973
X36.559 Y25.253 Z-1.993
X36.6 Y25.284 Z-2
X36.76 Y25.404 F150
G3 X36.8 Y25.684 I-0.12 J0.16
X33.2 Y22.984 I-1.8 J-1.35 F1700
X36.8 Y25.684 I1.8 J1.35
X36.52 Y25.724 I-0.16 J-0.12 F600
G1 X36.36 Y25.604
X36.319 Y25.573 Z-1.993
X36.28 Y25.544 Z-1.973
X36.247 Y25.519 Z-1.941
X36.221 Y25.5 Z-1.9
X36.205 Y25.488 Z-1.852
X36.2 Y25.484 Z-1.8
X36.44 Y25.164 F1700
Z-2.8 F360
X36.445 Y25.168 Z-2.852
X36.461 Y25.18 Z-2.9
X36.487 Y25.199 Z-2.941
X36.52 Y25.224 Z-2.973
X36.559 Y25.253 Z-2.993
X36.6 Y25.284 Z-3
X36.76 Y25.404 F150
G3 X36.8 Y25.684 I-0.12 J0.16
X33.2 Y22.984 I-1.8 J-1.35 F1700
X36.8 Y25.684 I1.8 J1.35
X36.52 Y25.724 I-0.16 J-0.12 F600
G1 X36.36 Y25.604
X36.319 Y25.573 Z-2.993
X36.28 Y25.544 Z-2.973
X36.247 Y25.519 Z-2.941
X36.221 Y25.5 Z-2.9
X36.205 Y25.488 Z-2.852
X36.2 Y25.484 Z-2.8
X36.44 Y25.164 F1700
Z-3.8 F360
X36.445 Y25.168 Z-3.852
X36.461 Y25.18 Z-3.9
X36.487 Y25.199 Z-3.941
X36.52 Y25.224 Z-3.973
X36.559 Y25.253 Z-3.993
X36.6 Y25.284 Z-4
X36.76 Y25.404 F150
G3 X36.8 Y25.684 I-0.12 J0.16
X33.2 Y22.984 I-1.8 J-1.35 F1700
X36.8 Y25.684 I1.8 J1.35
X36.52 Y25.724 I-0.16 J-0.12 F600
G1 X36.36 Y25.604
X36.319 Y25.573 Z-3.993
X36.28 Y25.544 Z-3.973
X36.247 Y25.519 Z-3.941
X36.221 Y25.5 Z-3.9
X36.205 Y25.488 Z-3.852
X36.2 Y25.484 Z-3.8
G0 Z5
X19.286 Y-24.819
Z2
G1 Z-0.8 F360
X19.293 Z-0.852
X19.313 Z-0.9
X19.345 Z-0.941
X19.386 Z-0.973
X19.435 Z-0.993
X19.486 Z-1
X19.686 F150
G3 X19.886 Y-24.619 I0 J0.2
X18.386 Y-24.618 I-0.75 J0 F1700
X19.886 Y-24.619 I0.75 J0
X19.686 Y-24.419 I-0.2 J0 F600
G1 X19.486
X19.435 Z-0.993
X19.386 Z-0.973
X19.345 Z-0.941
X19.313 Z-0.9
X19.293 Z-0.852
X19.286 Z-0.8
Y-24.819 F1700
Z-1.8 F360
X19.293 Z-1.852
X19.313 Z-1.9
X19.345 Z-1.941
X19.386 Z-1.973
X19.435 Z-1.993
X19.486 Z-2
X19.686 F150
G3 X19.886 Y-24.619 I0 J0.2
X18.386 Y-24.618 I-0.75 J0 F1700
X19.886 Y-24.619 I0.75 J0
X19.686 Y-24.419 I-0.2 J0 F600
G1 X19.486
X19.435 Z-1.993
X19.386 Z-1.973
X19.345 Z-1.941
X19.313 Z-1.9
X19.293 Z-1.852
X19.286 Z-1.8
Y-24.819 F1700
Z-2.8 F360
X19.293 Z-2.852
X19.313 Z-2.9
X19.345 Z-2.941
X19.386 Z-2.973
X19.435 Z-2.993
X19.486 Z-3
X19.686 F150
G3 X19.886 Y-24.619 I0 J0.2
X18.386 Y-24.618 I-0.75 J0 F1700
X19.886 Y-24.619 I0.75 J0
X19.686 Y-24.419 I-0.2 J0 F600
G1 X19.486
X19.435 Z-2.993
X19.386 Z-2.973
X19.345 Z-2.941
X19.313 Z-2.9
X19.293 Z-2.852
X19.286 Z-2.8
Y-24.819 F1700
Z-3.8 F360
X19.293 Z-3.852
X19.313 Z-3.9
X19.345 Z-3.941
X19.386 Z-3.973
X19.435 Z-3.993
X19.486 Z-4
X19.686 F150
G3 X19.886 Y-24.619 I0 J0.2
X18.386 Y-24.618 I-0.75 J0 F1700
X19.886 Y-24.619 I0.75 J0
X19.686 Y-24.419 I-0.2 J0 F600
G1 X19.486
X19.435 Z-3.993
X19.386 Z-3.973
X19.345 Z-3.941
X19.313 Z-3.9
X19.293 Z-3.852
X19.286 Z-3.8
G0 Z5
X15.742 Y-43.73
Z2
G1 Z-0.8 F360
X15.747 Y-43.726 Z-0.852
X15.763 Y-43.713 Z-0.9
X15.788 Y-43.694 Z-0.941
X15.82 Y-43.668 Z-0.973
X15.858 Y-43.638 Z-0.993
X15.899 Y-43.606 Z-1
X16.056 Y-43.482 F150
G3 X16.089 Y-43.201 I-0.124 J0.157
X14.911 Y-44.13 I-0.589 J-0.465 F1700
X16.089 Y-43.201 I0.589 J0.465
X15.808 Y-43.168 I-0.157 J-0.124 F600
G1 X15.651 Y-43.292
X15.61 Y-43.324 Z-0.993
X15.572 Y-43.354 Z-0.973
X15.54 Y-43.38 Z-0.941
X15.515 Y-43.399 Z-0.9
X15.499 Y-43.412 Z-0.852
X15.494 Y-43.416 Z-0.8
X15.742 Y-43.73 F1700
Z-1.8 F360
X15.747 Y-43.726 Z-1.852
X15.763 Y-43.713 Z-1.9
X15.788 Y-43.694 Z-1.941
X15.82 Y-43.668 Z-1.973
X15.858 Y-43.638 Z-1.993
X15.899 Y-43.606 Z-2
X16.056 Y-43.482 F150
G3 X16.089 Y-43.201 I-0.124 J0.157
X14.911 Y-44.13 I-0.589 J-0.465 F1700
X16.089 Y-43.201 I0.589 J0.465
X15.808 Y-43.168 I-0.157 J-0.124 F600
G1 X15.651 Y-43.292
X15.61 Y-43.324 Z-1.993
X15.572 Y-43.354 Z-1.973
X15.54 Y-43.38 Z-1.941
X15.515 Y-43.399 Z-1.9
X15.499 Y-43.412 Z-1.852
X15.494 Y-43.416 Z-1.8
X15.742 Y-43.73 F1700
Z-2.8 F360
X15.747 Y-43.726 Z-2.852
X15.763 Y-43.713 Z-2.9
X15.788 Y-43.694 Z-2.941
X15.82 Y-43.668 Z-2.973
X15.858 Y-43.638 Z-2.993
X15.899 Y-43.606 Z-3
X16.056 Y-43.482 F150
G3 X16.089 Y-43.201 I-0.124 J0.157
X14.911 Y-44.13 I-0.589 J-0.465 F1700
X16.089 Y-43.201 I0.589 J0.465
X15.808 Y-43.168 I-0.157 J-0.124 F600
G1 X15.651 Y-43.292
X15.61 Y-43.324 Z-2.993
X15.572 Y-43.354 Z-2.973
X15.54 Y-43.38 Z-2.941
X15.515 Y-43.399 Z-2.9
X15.499 Y-43.412 Z-2.852
X15.494 Y-43.416 Z-2.8
X15.742 Y-43.73 F1700
Z-3.8 F360
X15.747 Y-43.726 Z-3.852
X15.763 Y-43.713 Z-3.9
X15.788 Y-43.694 Z-3.941
X15.82 Y-43.668 Z-3.973
X15.858 Y-43.638 Z-3.993
X15.899 Y-43.606 Z-4
X16.056 Y-43.482 F150
G3 X16.089 Y-43.201 I-0.124 J0.157
X14.911 Y-44.13 I-0.589 J-0.465 F1700
X16.089 Y-43.201 I0.589 J0.465
X15.808 Y-43.168 I-0.157 J-0.124 F600
G1 X15.651 Y-43.292
X15.61 Y-43.324 Z-3.993
X15.572 Y-43.354 Z-3.973
X15.54 Y-43.38 Z-3.941
X15.515 Y-43.399 Z-3.9
X15.499 Y-43.412 Z-3.852
X15.494 Y-43.416 Z-3.8
G0 Z5
X7.992 Y-57.153
Z2
G1 Z-0.8 F360
X7.997 Y-57.149 Z-0.852
X8.013 Y-57.137 Z-0.9
X8.038 Y-57.117 Z-0.941
X8.07 Y-57.091 Z-0.973
X8.108 Y-57.062 Z-0.993
X8.149 Y-57.029 Z-1
X8.306 Y-56.906 F150
G3 X8.339 Y-56.625 I-0.124 J0.157
X7.161 Y-57.554 I-0.589 J-0.465 F1700
X8.339 Y-56.625 I0.589 J0.465
X8.058 Y-56.592 I-0.157 J-0.124 F600
G1 X7.901 Y-56.715
X7.86 Y-56.748 Z-0.993
X7.822 Y-56.777 Z-0.973
X7.79 Y-56.803 Z-0.941
X7.765 Y-56.823 Z-0.9
X7.749 Y-56.835 Z-0.852
X7.744 Y-56.839 Z-0.8
X7.992 Y-57.153 F1700
Z-1.8 F360
X7.997 Y-57.149 Z-1.852
X8.013 Y-57.137 Z-1.9
X8.038 Y-57.117 Z-1.941
X8.07 Y-57.091 Z-1.973
X8.108 Y-57.062 Z-1.993
X8.149 Y-57.029 Z-2
X8.306 Y-56.906 F150
G3 X8.339 Y-56.625 I-0.124 J0.157
X7.161 Y-57.554 I-0.589 J-0.465 F1700
X8.339 Y-56.625 I0.589 J0.465
X8.058 Y-56.592 I-0.157 J-0.124 F600
G1 X7.901 Y-56.715
X7.86 Y-56.748 Z-1.993
X7.822 Y-56.777 Z-1.973
X7.79 Y-56.803 Z-1.941
X7.765 Y-56.823 Z-1.9
X7.749 Y-56.835 Z-1.852
X7.744 Y-56.839 Z-1.8
X7.992 Y-57.153 F1700
Z-2.8 F360
X7.997 Y-57.149 Z-2.852
X8.013 Y-57.137 Z-2.9
X8.038 Y-57.117 Z-2.941
X8.07 Y-57.091 Z-2.973
X8.108 Y-57.062 Z-2.993
X8.149 Y-57.029 Z-3
X8.306 Y-56.906 F150
G3 X8.339 Y-56.625 I-0.124 J0.157
X7.161 Y-57.554 I-0.589 J-0.465 F1700
X8.339 Y-56.625 I0.589 J0.465
X8.058 Y-56.592 I-0.157 J-0.124 F600
G1 X7.901 Y-56.715
X7.86 Y-56.748 Z-2.993
X7.822 Y-56.777 Z-2.973
X7.79 Y-56.803 Z-2.941
X7.765 Y-56.823 Z-2.9
X7.749 Y-56.835 Z-2.852
X7.744 Y-56.839 Z-2.8
X7.992 Y-57.153 F1700
Z-3.8 F360
X7.997 Y-57.149 Z-3.852
X8.013 Y-57.137 Z-3.9
X8.038 Y-57.117 Z-3.941
X8.07 Y-57.091 Z-3.973
X8.108 Y-57.062 Z-3.993
X8.149 Y-57.029 Z-4
X8.306 Y-56.906 F150
G3 X8.339 Y-56.625 I-0.124 J0.157
X7.161 Y-57.554 I-0.589 J-0.465 F1700
X8.339 Y-56.625 I0.589 J0.465
X8.058 Y-56.592 I-0.157 J-0.124 F600
G1 X7.901 Y-56.715
X7.86 Y-56.748 Z-3.993
X7.822 Y-56.777 Z-3.973
X7.79 Y-56.803 Z-3.941
X7.765 Y-56.823 Z-3.9
X7.749 Y-56.835 Z-3.852
X7.744 Y-56.839 Z-3.8
G0 Z5
X-7.51 Y-57.159
Z2
G1 Z-0.8 F360
X-7.505 Y-57.155 Z-0.852
X-7.489 Y-57.143 Z-0.9
X-7.463 Y-57.124 Z-0.941
X-7.43 Y-57.099 Z-0.973
X-7.391 Y-57.07 Z-0.993
X-7.35 Y-57.039 Z-1
X-7.19 Y-56.919 F150
G3 X-7.15 Y-56.639 I-0.12 J0.16
X-8.35 Y-57.539 I-0.6 J-0.45 F1700
X-7.15 Y-56.639 I0.6 J0.45
X-7.43 Y-56.599 I-0.16 J-0.12 F600
G1 X-7.59 Y-56.719
X-7.631 Y-56.75 Z-0.993
X-7.67 Y-56.779 Z-0.973
X-7.703 Y-56.804 Z-0.941
X-7.729 Y-56.823 Z-0.9
X-7.745 Y-56.835 Z-0.852
X-7.75 Y-56.839 Z-0.8
X-7.51 Y-57.159 F1700
Z-1.8 F360
X-7.505 Y-57.155 Z-1.852
X-7.489 Y-57.143 Z-1.9
X-7.463 Y-57.124 Z-1.941
X-7.43 Y-57.099 Z-1.973
X-7.391 Y-57.07 Z-1.993
X-7.35 Y-57.039 Z-2
X-7.19 Y-56.919 F150
G3 X-7.15 Y-56.639 I-0.12 J0.16
X-8.35 Y-57.539 I-0.6 J-0.45 F1700
X-7.15 Y-56.639 I0.6 J0.45
X-7.43 Y-56.599 I-0.16 J-0.12 F600
G1 X-7.59 Y-56.719
X-7.631 Y-56.75 Z-1.993
X-7.67 Y-56.779 Z-1.973
X-7.703 Y-56.804 Z-1.941
X-7.729 Y-56.823 Z-1.9
X-7.745 Y-56.835 Z-1.852
X-7.75 Y-56.839 Z-1.8
X-7.51 Y-57.159 F1700
Z-2.8 F360
X-7.505 Y-57.155 Z-2.852
X-7.489 Y-57.143 Z-2.9
X-7.463 Y-57.124 Z-2.941
X-7.43 Y-57.099 Z-2.973
X-7.391 Y-57.07 Z-2.993
X-7.35 Y-57.039 Z-3
X-7.19 Y-56.919 F150
G3 X-7.15 Y-56.639 I-0.12 J0.16
X-8.35 Y-57.539 I-0.6 J-0.45 F1700
X-7.15 Y-56.639 I0.6 J0.45
X-7.43 Y-56.599 I-0.16 J-0.12 F600
G1 X-7.59 Y-56.719
X-7.631 Y-56.75 Z-2.993
X-7.67 Y-56.779 Z-2.973
X-7.703 Y-56.804 Z-2.941
X-7.729 Y-56.823 Z-2.9
X-7.745 Y-56.835 Z-2.852
X-7.75 Y-56.839 Z-2.8
X-7.51 Y-57.159 F1700
Z-3.8 F360
X-7.505 Y-57.155 Z-3.852
X-7.489 Y-57.143 Z-3.9
X-7.463 Y-57.124 Z-3.941
X-7.43 Y-57.099 Z-3.973
X-7.391 Y-57.07 Z-3.993
X-7.35 Y-57.039 Z-4
X-7.19 Y-56.919 F150
G3 X-7.15 Y-56.639 I-0.12 J0.16
X-8.35 Y-57.539 I-0.6 J-0.45 F1700
X-7.15 Y-56.639 I0.6 J0.45
X-7.43 Y-56.599 I-0.16 J-0.12 F600
G1 X-7.59 Y-56.719
X-7.631 Y-56.75 Z-3.993
X-7.67 Y-56.779 Z-3.973
X-7.703 Y-56.804 Z-3.941
X-7.729 Y-56.823 Z-3.9
X-7.745 Y-56.835 Z-3.852
X-7.75 Y-56.839 Z-3.8
G0 Z5
X-15.26 Y-43.736
Z2
G1 Z-0.8 F360
X-15.255 Y-43.732 Z-0.852
X-15.239 Y-43.72 Z-0.9
X-15.213 Y-43.701 Z-0.941
X-15.18 Y-43.676 Z-0.973
X-15.141 Y-43.647 Z-0.993
X-15.1 Y-43.616 Z-1
X-14.94 Y-43.496 F150
G3 X-14.9 Y-43.216 I-0.12 J0.16
X-16.1 Y-44.116 I-0.6 J-0.45 F1700
X-14.9 Y-43.216 I0.6 J0.45
X-15.18 Y-43.176 I-0.16 J-0.12 F600
G1 X-15.34 Y-43.296
X-15.381 Y-43.327 Z-0.993
X-15.42 Y-43.356 Z-0.973
X-15.453 Y-43.381 Z-0.941
X-15.479 Y-43.4 Z-0.9
X-15.495 Y-43.412 Z-0.852
X-15.5 Y-43.416 Z-0.8
X-15.26 Y-43.736 F1700
Z-1.8 F360
X-15.255 Y-43.732 Z-1.852
X-15.239 Y-43.72 Z-1.9
X-15.213 Y-43.701 Z-1.941
X-15.18 Y-43.676 Z-1.973
X-15.141 Y-43.647 Z-1.993
X-15.1 Y-43.616 Z-2
X-14.94 Y-43.496 F150
G3 X-14.9 Y-43.216 I-0.12 J0.16
X-16.1 Y-44.116 I-0.6 J-0.45 F1700
X-14.9 Y-43.216 I0.6 J0.45
X-15.18 Y-43.176 I-0.16 J-0.12 F600
G1 X-15.34 Y-43.296
X-15.381 Y-43.327 Z-1.993
X-15.42 Y-43.356 Z-1.973
X-15.453 Y-43.381 Z-1.941
X-15.479 Y-43.4 Z-1.9
X-15.495 Y-43.412 Z-1.852
X-15.5 Y-43.416 Z-1.8
X-15.26 Y-43.736 F1700
Z-2.8 F360
X-15.255 Y-43.732 Z-2.852
X-15.239 Y-43.72 Z-2.9
X-15.213 Y-43.701 Z-2.941
X-15.18 Y-43.676 Z-2.973
X-15.141 Y-43.647 Z-2.993
X-15.1 Y-43.616 Z-3
X-14.94 Y-43.496 F150
G3 X-14.9 Y-43.216 I-0.12 J0.16
X-16.1 Y-44.116 I-0.6 J-0.45 F1700
X-14.9 Y-43.216 I0.6 J0.45
X-15.18 Y-43.176 I-0.16 J-0.12 F600
G1 X-15.34 Y-43.296
X-15.381 Y-43.327 Z-2.993
X-15.42 Y-43.356 Z-2.973
X-15.453 Y-43.381 Z-2.941
X-15.479 Y-43.4 Z-2.9
X-15.495 Y-43.412 Z-2.852
X-15.5 Y-43.416 Z-2.8
X-15.26 Y-43.736 F1700
Z-3.8 F360
X-15.255 Y-43.732 Z-3.852
X-15.239 Y-43.72 Z-3.9
X-15.213 Y-43.701 Z-3.941
X-15.18 Y-43.676 Z-3.973
X-15.141 Y-43.647 Z-3.993
X-15.1 Y-43.616 Z-4
X-14.94 Y-43.496 F150
G3 X-14.9 Y-43.216 I-0.12 J0.16
X-16.1 Y-44.116 I-0.6 J-0.45 F1700
X-14.9 Y-43.216 I0.6 J0.45
X-15.18 Y-43.176 I-0.16 J-0.12 F600
G1 X-15.34 Y-43.296
X-15.381 Y-43.327 Z-3.993
X-15.42 Y-43.356 Z-3.973
X-15.453 Y-43.381 Z-3.941
X-15.479 Y-43.4 Z-3.9
X-15.495 Y-43.412 Z-3.852
X-15.5 Y-43.416 Z-3.8
G0 Z5
X-21.017 Y-19.855
Z2
G1 Z-0.8 F360
X-21.01 Z-0.852
X-20.99 Z-0.9
X-20.958 Z-0.941
X-20.917 Z-0.973
X-20.869 Z-0.993
X-20.817 Z-1
X-20.617 F150
G3 X-20.417 Y-19.655 I0 J0.2
X-21.917 I-0.75 J0 F1700
X-20.417 I0.75 J0
X-20.617 Y-19.455 I-0.2 J0 F600
G1 X-20.817
X-20.869 Z-0.993
X-20.917 Z-0.973
X-20.958 Z-0.941
X-20.99 Z-0.9
X-21.01 Z-0.852
X-21.017 Z-0.8
Y-19.855 F1700
Z-1.8 F360
X-21.01 Z-1.852
X-20.99 Z-1.9
X-20.958 Z-1.941
X-20.917 Z-1.973
X-20.869 Z-1.993
X-20.817 Z-2
X-20.617 F150
G3 X-20.417 Y-19.655 I0 J0.2
X-21.917 I-0.75 J0 F1700
X-20.417 I0.75 J0
X-20.617 Y-19.455 I-0.2 J0 F600
G1 X-20.817
X-20.869 Z-1.993
X-20.917 Z-1.973
X-20.958 Z-1.941
X-20.99 Z-1.9
X-21.01 Z-1.852
X-21.017 Z-1.8
Y-19.855 F1700
Z-2.8 F360
X-21.01 Z-2.852
X-20.99 Z-2.9
X-20.958 Z-2.941
X-20.917 Z-2.973
X-20.869 Z-2.993
X-20.817 Z-3
X-20.617 F150
G3 X-20.417 Y-19.655 I0 J0.2
X-21.917 I-0.75 J0 F1700
X-20.417 I0.75 J0
X-20.617 Y-19.455 I-0.2 J0 F600
G1 X-20.817
X-20.869 Z-2.993
X-20.917 Z-2.973
X-20.958 Z-2.941
X-20.99 Z-2.9
X-21.01 Z-2.852
X-21.017 Z-2.8
Y-19.855 F1700
Z-3.8 F360
X-21.01 Z-3.852
X-20.99 Z-3.9
X-20.958 Z-3.941
X-20.917 Z-3.973
X-20.869 Z-3.993
X-20.817 Z-4
X-20.617 F150
G3 X-20.417 Y-19.655 I0 J0.2
X-21.917 I-0.75 J0 F1700
X-20.417 I0.75 J0
X-20.617 Y-19.455 I-0.2 J0 F600
G1 X-20.817
X-20.869 Z-3.993
X-20.917 Z-3.973
X-20.958 Z-3.941
X-20.99 Z-3.9
X-21.01 Z-3.852
X-21.017 Z-3.8
G0 Z5
X-14.215 Y-0.866
Z2
G1 Z-0.8 F360
X-14.208 Z-0.852
X-14.188 Z-0.9
X-14.156 Z-0.941
X-14.115 Z-0.973
X-14.067 Z-0.993
X-14.015 Z-1
X-13.815 F150
G3 X-13.615 Y-0.666 I0 J0.2
X-15.115 I-0.75 J0 F1700
X-13.615 I0.75 J0
X-13.815 Y-0.466 I-0.2 J0 F600
G1 X-14.015
X-14.067 Z-0.993
X-14.115 Z-0.973
X-14.156 Z-0.941
X-14.188 Z-0.9
X-14.208 Z-0.852
X-14.215 Z-0.8
Y-0.866 F1700
Z-1.8 F360
X-14.208 Z-1.852
X-14.188 Z-1.9
X-14.156 Z-1.941
X-14.115 Z-1.973
X-14.067 Z-1.993
X-14.015 Z-2
X-13.815 F150
G3 X-13.615 Y-0.666 I0 J0.2
X-15.115 I-0.75 J0 F1700
X-13.615 I0.75 J0
X-13.815 Y-0.466 I-0.2 J0 F600
G1 X-14.015
X-14.067 Z-1.993
X-14.115 Z-1.973
X-14.156 Z-1.941
X-14.188 Z-1.9
X-14.208 Z-1.852
X-14.215 Z-1.8
Y-0.866 F1700
Z-2.8 F360
X-14.208 Z-2.852
X-14.188 Z-2.9
X-14.156 Z-2.941
X-14.115 Z-2.973
X-14.067 Z-2.993
X-14.015 Z-3
X-13.815 F150
G3 X-13.615 Y-0.666 I0 J0.2
X-15.115 I-0.75 J0 F1700
X-13.615 I0.75 J0
X-13.815 Y-0.466 I-0.2 J0 F600
G1 X-14.015
X-14.067 Z-2.993
X-14.115 Z-2.973
X-14.156 Z-2.941
X-14.188 Z-2.9
X-14.208 Z-2.852
X-14.215 Z-2.8
Y-0.866 F1700
Z-3.8 F360
X-14.208 Z-3.852
X-14.188 Z-3.9
X-14.156 Z-3.941
X-14.115 Z-3.973
X-14.067 Z-3.993
X-14.015 Z-4
X-13.815 F150
G3 X-13.615 Y-0.666 I0 J0.2
X-15.115 I-0.75 J0 F1700
X-13.615 I0.75 J0
X-13.815 Y-0.466 I-0.2 J0 F600
G1 X-14.015
X-14.067 Z-3.993
X-14.115 Z-3.973
X-14.156 Z-3.941
X-14.188 Z-3.9
X-14.208 Z-3.852
X-14.215 Z-3.8
G0 Z5
X-32.284 Y8.048
Z2
G1 Z-0.8 F360
X-32.278 Y8.052 Z-0.852
X-32.263 Y8.064 Z-0.9
X-32.238 Y8.084 Z-0.941
X-32.205 Y8.11 Z-0.973
X-32.167 Y8.14 Z-0.993
X-32.127 Y8.172 Z-1
X-31.97 Y8.295 F150
G3 X-31.937 Y8.576 I-0.124 J0.157
X-33.114 Y7.647 I-0.589 J-0.465 F1700
X-31.937 Y8.576 I0.589 J0.465
X-32.217 Y8.61 I-0.157 J-0.124 F600
G1 X-32.374 Y8.486
X-32.415 Y8.454 Z-0.993
X-32.453 Y8.424 Z-0.973
X-32.485 Y8.398 Z-0.941
X-32.51 Y8.378 Z-0.9
X-32.526 Y8.366 Z-0.852
X-32.531 Y8.362 Z-0.8
X-32.284 Y8.048 F1700
Z-1.8 F360
X-32.278 Y8.052 Z-1.852
X-32.263 Y8.064 Z-1.9
X-32.238 Y8.084 Z-1.941
X-32.205 Y8.11 Z-1.973
X-32.167 Y8.14 Z-1.993
X-32.127 Y8.172 Z-2
X-31.97 Y8.295 F150
G3 X-31.937 Y8.576 I-0.124 J0.157
X-33.114 Y7.647 I-0.589 J-0.465 F1700
X-31.937 Y8.576 I0.589 J0.465
X-32.217 Y8.61 I-0.157 J-0.124 F600
G1 X-32.374 Y8.486
X-32.415 Y8.454 Z-1.993
X-32.453 Y8.424 Z-1.973
X-32.485 Y8.398 Z-1.941
X-32.51 Y8.378 Z-1.9
X-32.526 Y8.366 Z-1.852
X-32.531 Y8.362 Z-1.8
X-32.284 Y8.048 F1700
Z-2.8 F360
X-32.278 Y8.052 Z-2.852
X-32.263 Y8.064 Z-2.9
X-32.238 Y8.084 Z-2.941
X-32.205 Y8.11 Z-2.973
X-32.167 Y8.14 Z-2.993
X-32.127 Y8.172 Z-3
X-31.97 Y8.295 F150
G3 X-31.937 Y8.576 I-0.124 J0.157
X-33.114 Y7.647 I-0.589 J-0.465 F1700
X-31.937 Y8.576 I0.589 J0.465
X-32.217 Y8.61 I-0.157 J-0.124 F600
G1 X-32.374 Y8.486
X-32.415 Y8.454 Z-2.993
X-32.453 Y8.424 Z-2.973
X-32.485 Y8.398 Z-2.941
X-32.51 Y8.378 Z-2.9
X-32.526 Y8.366 Z-2.852
X-32.531 Y8.362 Z-2.8
X-32.284 Y8.048 F1700
Z-3.8 F360
X-32.278 Y8.052 Z-3.852
X-32.263 Y8.064 Z-3.9
X-32.238 Y8.084 Z-3.941
X-32.205 Y8.11 Z-3.973
X-32.167 Y8.14 Z-3.993
X-32.127 Y8.172 Z-4
X-31.97 Y8.295 F150
G3 X-31.937 Y8.576 I-0.124 J0.157
X-33.114 Y7.647 I-0.589 J-0.465 F1700
X-31.937 Y8.576 I0.589 J0.465
X-32.217 Y8.61 I-0.157 J-0.124 F600
G1 X-32.374 Y8.486
X-32.415 Y8.454 Z-3.993
X-32.453 Y8.424 Z-3.973
X-32.485 Y8.398 Z-3.941
X-32.51 Y8.378 Z-3.9
X-32.526 Y8.366 Z-3.852
X-32.531 Y8.362 Z-3.8
G0 Z5
X-33.35 Y24.134
Z2
G1 Z-0.8 F360
X-33.343 Z-0.852
X-33.323 Z-0.9
X-33.291 Z-0.941
X-33.25 Z-0.973
X-33.202 Z-0.993
X-33.15 Z-1
X-32.95 F150
G3 X-32.75 Y24.334 I0 J0.2
X-37.25 I-2.25 J0 F1700
X-32.75 I2.25 J0
X-32.95 Y24.534 I-0.2 J0 F600
G1 X-33.15
X-33.202 Z-0.993
X-33.25 Z-0.973
X-33.291 Z-0.941
X-33.323 Z-0.9
X-33.343 Z-0.852
X-33.35 Z-0.8
Y24.134 F1700
Z-1.8 F360
X-33.343 Z-1.852
X-33.323 Z-1.9
X-33.291 Z-1.941
X-33.25 Z-1.973
X-33.202 Z-1.993
X-33.15 Z-2
X-32.95 F150
G3 X-32.75 Y24.334 I0 J0.2
X-37.25 I-2.25 J0 F1700
X-32.75 I2.25 J0
X-32.95 Y24.534 I-0.2 J0 F600
G1 X-33.15
X-33.202 Z-1.993
X-33.25 Z-1.973
X-33.291 Z-1.941
X-33.323 Z-1.9
X-33.343 Z-1.852
X-33.35 Z-1.8
Y24.134 F1700
Z-2.8 F360
X-33.343 Z-2.852
X-33.323 Z-2.9
X-33.291 Z-2.941
X-33.25 Z-2.973
X-33.202 Z-2.993
X-33.15 Z-3
X-32.95 F150
G3 X-32.75 Y24.334 I0 J0.2
X-37.25 I-2.25 J0 F1700
X-32.75 I2.25 J0
X-32.95 Y24.534 I-0.2 J0 F600
G1 X-33.15
X-33.202 Z-2.993
X-33.25 Z-2.973
X-33.291 Z-2.941
X-33.323 Z-2.9
X-33.343 Z-2.852
X-33.35 Z-2.8
Y24.134 F1700
Z-3.8 F360
X-33.343 Z-3.852
X-33.323 Z-3.9
X-33.291 Z-3.941
X-33.25 Z-3.973
X-33.202 Z-3.993
X-33.15 Z-4
X-32.95 F150
G3 X-32.75 Y24.334 I0 J0.2
X-37.25 I-2.25 J0 F1700
X-32.75 I2.25 J0
X-32.95 Y24.534 I-0.2 J0 F600
G1 X-33.15
X-33.202 Z-3.993
X-33.25 Z-3.973
X-33.291 Z-3.941
X-33.323 Z-3.9
X-33.343 Z-3.852
X-33.35 Z-3.8
G0 Z5
X-33.56 Y95.164
Z2
G1 Z-0.8 F360
X-33.555 Y95.168 Z-0.852
X-33.539 Y95.18 Z-0.9
X-33.513 Y95.199 Z-0.941
X-33.48 Y95.224 Z-0.973
X-33.441 Y95.253 Z-0.993
X-33.4 Y95.284 Z-1
X-33.24 Y95.404 F150
G3 X-33.2 Y95.684 I-0.12 J0.16
X-36.8 Y92.984 I-1.8 J-1.35 F1700
X-33.2 Y95.684 I1.8 J1.35
X-33.48 Y95.724 I-0.16 J-0.12 F600
G1 X-33.64 Y95.604
X-33.681 Y95.573 Z-0.993
X-33.72 Y95.544 Z-0.973
X-33.753 Y95.519 Z-0.941
X-33.779 Y95.5 Z-0.9
X-33.795 Y95.488 Z-0.852
X-33.8 Y95.484 Z-0.8
X-33.56 Y95.164 F1700
Z-1.8 F360
X-33.555 Y95.168 Z-1.852
X-33.539 Y95.18 Z-1.9
X-33.513 Y95.199 Z-1.941
X-33.48 Y95.224 Z-1.973
X-33.441 Y95.253 Z-1.993
X-33.4 Y95.284 Z-2
X-33.24 Y95.404 F150
G3 X-33.2 Y95.684 I-0.12 J0.16
X-36.8 Y92.984 I-1.8 J-1.35 F1700
X-33.2 Y95.684 I1.8 J1.35
X-33.48 Y95.724 I-0.16 J-0.12 F600
G1 X-33.64 Y95.604
X-33.681 Y95.573 Z-1.993
X-33.72 Y95.544 Z-1.973
X-33.753 Y95.519 Z-1.941
X-33.779 Y95.5 Z-1.9
X-33.795 Y95.488 Z-1.852
X-33.8 Y95.484 Z-1.8
X-33.56 Y95.164 F1700
Z-2.8 F360
X-33.555 Y95.168 Z-2.852
X-33.539 Y95.18 Z-2.9
X-33.513 Y95.199 Z-2.941
X-33.48 Y95.224 Z-2.973
X-33.441 Y95.253 Z-2.993
X-33.4 Y95.284 Z-3
X-33.24 Y95.404 F150
G3 X-33.2 Y95.684 I-0.12 J0.16
X-36.8 Y92.984 I-1.8 J-1.35 F1700
X-33.2 Y95.684 I1.8 J1.35
X-33.48 Y95.724 I-0.16 J-0.12 F600
G1 X-33.64 Y95.604
X-33.681 Y95.573 Z-2.993
X-33.72 Y95.544 Z-2.973
X-33.753 Y95.519 Z-2.941
X-33.779 Y95.5 Z-2.9
X-33.795 Y95.488 Z-2.852
X-33.8 Y95.484 Z-2.8
X-33.56 Y95.164 F1700
Z-3.8 F360
X-33.555 Y95.168 Z-3.852
X-33.539 Y95.18 Z-3.9
X-33.513 Y95.199 Z-3.941
X-33.48 Y95.224 Z-3.973
X-33.441 Y95.253 Z-3.993
X-33.4 Y95.284 Z-4
X-33.24 Y95.404 F150
G3 X-33.2 Y95.684 I-0.12 J0.16
X-36.8 Y92.984 I-1.8 J-1.35 F1700
X-33.2 Y95.684 I1.8 J1.35
X-33.48 Y95.724 I-0.16 J-0.12 F600
G1 X-33.64 Y95.604
X-33.681 Y95.573 Z-3.993
X-33.72 Y95.544 Z-3.973
X-33.753 Y95.519 Z-3.941
X-33.779 Y95.5 Z-3.9
X-33.795 Y95.488 Z-3.852
X-33.8 Y95.484 Z-3.8
G0 Z15

M9
M30
