(2D CONTOUR1)
(T17  D=2 CR=0 - ZMIN=-4.8 - FLAT END MILL)
G90 G94 G91.1 G40 G49 G17
G21

(SINGLE HOLE)
M5
M9
T17
(SINGLE FLUTE)
S14000 M3
G54
M8
G0 X-33.35 Y94.134
G43 Z15 H1
Z2
G1 Z-0.8 F60
X-33.343 Z-0.852
X-33.323 Z-0.9
X-33.291 Z-0.941
X-33.25 Z-0.973
X-33.202 Z-0.993
X-33.15 Z-1
X-32.95 F150
G3 X-32.75 Y94.334 I0 J0.2
X-37.25 I-2.25 J0
X-32.75 I2.25 J0
X-32.95 Y94.534 I-0.2 J0 F600
G1 X-33.15
X-33.202 Z-0.993
X-33.25 Z-0.973
X-33.291 Z-0.941
X-33.323 Z-0.9
X-33.343 Z-0.852
X-33.35 Z-0.8
Y94.134 F150
Z-1.8 F60
X-33.343 Z-1.852
X-33.323 Z-1.9
X-33.291 Z-1.941
X-33.25 Z-1.973
X-33.202 Z-1.993
X-33.15 Z-2
X-32.95 F150
G3 X-32.75 Y94.334 I0 J0.2
X-37.25 I-2.25 J0
X-32.75 I2.25 J0
X-32.95 Y94.534 I-0.2 J0 F600
G1 X-33.15
X-33.202 Z-1.993
X-33.25 Z-1.973
X-33.291 Z-1.941
X-33.323 Z-1.9
X-33.343 Z-1.852
X-33.35 Z-1.8
Y94.134 F150
Z-2.8 F60
X-33.343 Z-2.852
X-33.323 Z-2.9
X-33.291 Z-2.941
X-33.25 Z-2.973
X-33.202 Z-2.993
X-33.15 Z-3
X-32.95 F150
G3 X-32.75 Y94.334 I0 J0.2
X-37.25 I-2.25 J0
X-32.75 I2.25 J0
X-32.95 Y94.534 I-0.2 J0 F600
G1 X-33.15
X-33.202 Z-2.993
X-33.25 Z-2.973
X-33.291 Z-2.941
X-33.323 Z-2.9
X-33.343 Z-2.852
X-33.35 Z-2.8
Y94.134 F150
Z-3.8 F60
X-33.343 Z-3.852
X-33.323 Z-3.9
X-33.291 Z-3.941
X-33.25 Z-3.973
X-33.202 Z-3.993
X-33.15 Z-4
X-32.95 F150
G3 X-32.75 Y94.334 I0 J0.2
X-37.25 I-2.25 J0
X-32.75 I2.25 J0
X-32.95 Y94.534 I-0.2 J0 F600
G1 X-33.15
X-33.202 Z-3.993
X-33.25 Z-3.973
X-33.291 Z-3.941
X-33.323 Z-3.9
X-33.343 Z-3.852
X-33.35 Z-3.8
Y94.134 F150
Z-4.6 F60
X-33.343 Z-4.652
X-33.323 Z-4.7
X-33.291 Z-4.741
X-33.25 Z-4.773
X-33.202 Z-4.793
X-33.15 Z-4.8
X-32.95 F150
G3 X-32.75 Y94.334 I0 J0.2
X-37.25 I-2.25 J0
X-32.75 I2.25 J0
X-32.95 Y94.534 I-0.2 J0 F600
G1 X-33.15
X-33.202 Z-4.793
X-33.25 Z-4.773
X-33.291 Z-4.741
X-33.323 Z-4.7
X-33.343 Z-4.652
X-33.35 Z-4.6
G0 Z15

M9
M30
