(2D CONTOUR1)
(T17  D=2 CR=0 - ZMIN=-4.8 - FLAT END MILL)
G90 G94 G91.1 G40 G49 G17
G21

(SINGLE HOLE)
M5
M9
T17
(SINGLE FLUTE)
S14000 M3
G54
M8
G0 X36.65 Y24.134
G43 Z15 H1
Z2
G1 Z-0.05 F60
X36.657 Z-0.102
X36.677 Z-0.15
X36.709 Z-0.191
X36.75 Z-0.223
X36.798 Z-0.243
X36.85 Z-0.25
X37.05 F150
G3 X37.25 Y24.334 I0 J0.2
X32.75 I-2.25 J0 F600
X37.25 I2.25 J0
X37.05 Y24.534 I-0.2 J0
G1 X36.85
X36.798 Z-0.243
X36.75 Z-0.223
X36.709 Z-0.191
X36.677 Z-0.15
X36.657 Z-0.102
X36.65 Z-0.05
Y24.134
Z-0.3 F60
X36.657 Z-0.352
X36.677 Z-0.4
X36.709 Z-0.441
X36.75 Z-0.473
X36.798 Z-0.493
X36.85 Z-0.5
X37.05 F150
G3 X37.25 Y24.334 I0 J0.2
X32.75 I-2.25 J0 F600
X37.25 I2.25 J0
X37.05 Y24.534 I-0.2 J0
G1 X36.85
X36.798 Z-0.493
X36.75 Z-0.473
X36.709 Z-0.441
X36.677 Z-0.4
X36.657 Z-0.352
X36.65 Z-0.3
Y24.134
Z-0.55 F60
X36.657 Z-0.602
X36.677 Z-0.65
X36.709 Z-0.691
X36.75 Z-0.723
X36.798 Z-0.743
X36.85 Z-0.75
X37.05 F150
G3 X37.25 Y24.334 I0 J0.2
X32.75 I-2.25 J0 F600
X37.25 I2.25 J0
X37.05 Y24.534 I-0.2 J0
G1 X36.85
X36.798 Z-0.743
X36.75 Z-0.723
X36.709 Z-0.691
X36.677 Z-0.65
X36.657 Z-0.602
X36.65 Z-0.55
Y24.134
Z-0.8 F60
X36.657 Z-0.852
X36.677 Z-0.9
X36.709 Z-0.941
X36.75 Z-0.973
X36.798 Z-0.993
X36.85 Z-1
X37.05 F150
G3 X37.25 Y24.334 I0 J0.2
X32.75 I-2.25 J0 F600
X37.25 I2.25 J0
X37.05 Y24.534 I-0.2 J0
G1 X36.85
X36.798 Z-0.993
X36.75 Z-0.973
X36.709 Z-0.941
X36.677 Z-0.9
X36.657 Z-0.852
X36.65 Z-0.8
Y24.134
Z-1.05 F60
X36.657 Z-1.102
X36.677 Z-1.15
X36.709 Z-1.191
X36.75 Z-1.223
X36.798 Z-1.243
X36.85 Z-1.25
X37.05 F150
G3 X37.25 Y24.334 I0 J0.2
X32.75 I-2.25 J0 F600
X37.25 I2.25 J0
X37.05 Y24.534 I-0.2 J0
G1 X36.85
X36.798 Z-1.243
X36.75 Z-1.223
X36.709 Z-1.191
X36.677 Z-1.15
X36.657 Z-1.102
X36.65 Z-1.05
Y24.134
Z-1.3 F60
X36.657 Z-1.352
X36.677 Z-1.4
X36.709 Z-1.441
X36.75 Z-1.473
X36.798 Z-1.493
X36.85 Z-1.5
X37.05 F150
G3 X37.25 Y24.334 I0 J0.2
X32.75 I-2.25 J0 F600
X37.25 I2.25 J0
X37.05 Y24.534 I-0.2 J0
G1 X36.85
X36.798 Z-1.493
X36.75 Z-1.473
X36.709 Z-1.441
X36.677 Z-1.4
X36.657 Z-1.352
X36.65 Z-1.3
Y24.134
Z-1.55 F60
X36.657 Z-1.602
X36.677 Z-1.65
X36.709 Z-1.691
X36.75 Z-1.723
X36.798 Z-1.743
X36.85 Z-1.75
X37.05 F150
G3 X37.25 Y24.334 I0 J0.2
X32.75 I-2.25 J0 F600
X37.25 I2.25 J0
X37.05 Y24.534 I-0.2 J0
G1 X36.85
X36.798 Z-1.743
X36.75 Z-1.723
X36.709 Z-1.691
X36.677 Z-1.65
X36.657 Z-1.602
X36.65 Z-1.55
Y24.134
Z-1.8 F60
X36.657 Z-1.852
X36.677 Z-1.9
X36.709 Z-1.941
X36.75 Z-1.973
X36.798 Z-1.993
X36.85 Z-2
X37.05 F150
G3 X37.25 Y24.334 I0 J0.2
X32.75 I-2.25 J0 F600
X37.25 I2.25 J0
X37.05 Y24.534 I-0.2 J0
G1 X36.85
X36.798 Z-1.993
X36.75 Z-1.973
X36.709 Z-1.941
X36.677 Z-1.9
X36.657 Z-1.852
X36.65 Z-1.8
Y24.134
Z-2.05 F60
X36.657 Z-2.102
X36.677 Z-2.15
X36.709 Z-2.191
X36.75 Z-2.223
X36.798 Z-2.243
X36.85 Z-2.25
X37.05 F150
G3 X37.25 Y24.334 I0 J0.2
X32.75 I-2.25 J0 F600
X37.25 I2.25 J0
X37.05 Y24.534 I-0.2 J0
G1 X36.85
X36.798 Z-2.243
X36.75 Z-2.223
X36.709 Z-2.191
X36.677 Z-2.15
X36.657 Z-2.102
X36.65 Z-2.05
Y24.134
Z-2.3 F60
X36.657 Z-2.352
X36.677 Z-2.4
X36.709 Z-2.441
X36.75 Z-2.473
X36.798 Z-2.493
X36.85 Z-2.5
X37.05 F150
G3 X37.25 Y24.334 I0 J0.2
X32.75 I-2.25 J0 F600
X37.25 I2.25 J0
X37.05 Y24.534 I-0.2 J0
G1 X36.85
X36.798 Z-2.493
X36.75 Z-2.473
X36.709 Z-2.441
X36.677 Z-2.4
X36.657 Z-2.352
X36.65 Z-2.3
Y24.134
Z-2.55 F60
X36.657 Z-2.602
X36.677 Z-2.65
X36.709 Z-2.691
X36.75 Z-2.723
X36.798 Z-2.743
X36.85 Z-2.75
X37.05 F150
G3 X37.25 Y24.334 I0 J0.2
X32.75 I-2.25 J0 F600
X37.25 I2.25 J0
X37.05 Y24.534 I-0.2 J0
G1 X36.85
X36.798 Z-2.743
X36.75 Z-2.723
X36.709 Z-2.691
X36.677 Z-2.65
X36.657 Z-2.602
X36.65 Z-2.55
Y24.134
Z-2.8 F60
X36.657 Z-2.852
X36.677 Z-2.9
X36.709 Z-2.941
X36.75 Z-2.973
X36.798 Z-2.993
X36.85 Z-3
X37.05 F150
G3 X37.25 Y24.334 I0 J0.2
X32.75 I-2.25 J0 F600
X37.25 I2.25 J0
X37.05 Y24.534 I-0.2 J0
G1 X36.85
X36.798 Z-2.993
X36.75 Z-2.973
X36.709 Z-2.941
X36.677 Z-2.9
X36.657 Z-2.852
X36.65 Z-2.8
Y24.134
Z-3.05 F60
X36.657 Z-3.102
X36.677 Z-3.15
X36.709 Z-3.191
X36.75 Z-3.223
X36.798 Z-3.243
X36.85 Z-3.25
X37.05 F150
G3 X37.25 Y24.334 I0 J0.2
X32.75 I-2.25 J0 F600
X37.25 I2.25 J0
X37.05 Y24.534 I-0.2 J0
G1 X36.85
X36.798 Z-3.243
X36.75 Z-3.223
X36.709 Z-3.191
X36.677 Z-3.15
X36.657 Z-3.102
X36.65 Z-3.05
Y24.134
Z-3.3 F60
X36.657 Z-3.352
X36.677 Z-3.4
X36.709 Z-3.441
X36.75 Z-3.473
X36.798 Z-3.493
X36.85 Z-3.5
X37.05 F150
G3 X37.25 Y24.334 I0 J0.2
X32.75 I-2.25 J0 F600
X37.25 I2.25 J0
X37.05 Y24.534 I-0.2 J0
G1 X36.85
X36.798 Z-3.493
X36.75 Z-3.473
X36.709 Z-3.441
X36.677 Z-3.4
X36.657 Z-3.352
X36.65 Z-3.3
Y24.134
Z-3.55 F60
X36.657 Z-3.602
X36.677 Z-3.65
X36.709 Z-3.691
X36.75 Z-3.723
X36.798 Z-3.743
X36.85 Z-3.75
X37.05 F150
G3 X37.25 Y24.334 I0 J0.2
X32.75 I-2.25 J0 F600
X37.25 I2.25 J0
X37.05 Y24.534 I-0.2 J0
G1 X36.85
X36.798 Z-3.743
X36.75 Z-3.723
X36.709 Z-3.691
X36.677 Z-3.65
X36.657 Z-3.602
X36.65 Z-3.55
Y24.134
Z-3.8 F60
X36.657 Z-3.852
X36.677 Z-3.9
X36.709 Z-3.941
X36.75 Z-3.973
X36.798 Z-3.993
X36.85 Z-4
X37.05 F150
G3 X37.25 Y24.334 I0 J0.2
X32.75 I-2.25 J0 F600
X37.25 I2.25 J0
X37.05 Y24.534 I-0.2 J0
G1 X36.85
X36.798 Z-3.993
X36.75 Z-3.973
X36.709 Z-3.941
X36.677 Z-3.9
X36.657 Z-3.852
X36.65 Z-3.8
Y24.134
Z-4.05 F60
X36.657 Z-4.102
X36.677 Z-4.15
X36.709 Z-4.191
X36.75 Z-4.223
X36.798 Z-4.243
X36.85 Z-4.25
X37.05 F150
G3 X37.25 Y24.334 I0 J0.2
X32.75 I-2.25 J0 F600
X37.25 I2.25 J0
X37.05 Y24.534 I-0.2 J0
G1 X36.85
X36.798 Z-4.243
X36.75 Z-4.223
X36.709 Z-4.191
X36.677 Z-4.15
X36.657 Z-4.102
X36.65 Z-4.05
Y24.134
Z-4.3 F60
X36.657 Z-4.352
X36.677 Z-4.4
X36.709 Z-4.441
X36.75 Z-4.473
X36.798 Z-4.493
X36.85 Z-4.5
X37.05 F150
G3 X37.25 Y24.334 I0 J0.2
X32.75 I-2.25 J0 F600
X37.25 I2.25 J0
X37.05 Y24.534 I-0.2 J0
G1 X36.85
X36.798 Z-4.493
X36.75 Z-4.473
X36.709 Z-4.441
X36.677 Z-4.4
X36.657 Z-4.352
X36.65 Z-4.3
Y24.134
Z-4.45 F60
X36.657 Z-4.502
X36.677 Z-4.55
X36.709 Z-4.591
X36.75 Z-4.623
X36.798 Z-4.643
X36.85 Z-4.65
X37.05 F150
G3 X37.25 Y24.334 I0 J0.2
X32.75 I-2.25 J0 F600
X37.25 I2.25 J0
X37.05 Y24.534 I-0.2 J0
G1 X36.85
X36.798 Z-4.643
X36.75 Z-4.623
X36.709 Z-4.591
X36.677 Z-4.55
X36.657 Z-4.502
X36.65 Z-4.45
Y24.134
Z-4.6 F60
X36.657 Z-4.652
X36.677 Z-4.7
X36.709 Z-4.741
X36.75 Z-4.773
X36.798 Z-4.793
X36.85 Z-4.8
X37.05 F150
G3 X37.25 Y24.334 I0 J0.2
X32.75 I-2.25 J0 F600
X37.25 I2.25 J0
X37.05 Y24.534 I-0.2 J0
G1 X36.85
X36.798 Z-4.793
X36.75 Z-4.773
X36.709 Z-4.741
X36.677 Z-4.7
X36.657 Z-4.652
X36.65 Z-4.6
G0 Z15

M9
M30
