(2D CONTOUR1)
(T17  D=2 CR=0 - ZMIN=-4.8 - FLAT END MILL)
G90 G94 G91.1 G40 G49 G17
G21

(SINGLE HOLE)
M5
M9
T17
(SINGLE FLUTE)
S14000 M3
G54
M8
G0 X36.65 Y94.134
G43 Z15 H1
Z2
G1 Z-0.8 F60
X36.657 Z-0.852
X36.677 Z-0.9
X36.709 Z-0.941
X36.75 Z-0.973
X36.798 Z-0.993
X36.85 Z-1
X37.05 F150
G3 X37.25 Y94.334 I0 J0.2
X32.75 I-2.25 J0 F600
X37.25 I2.25 J0
X37.05 Y94.534 I-0.2 J0
G1 X36.85
X36.798 Z-0.993
X36.75 Z-0.973
X36.709 Z-0.941
X36.677 Z-0.9
X36.657 Z-0.852
X36.65 Z-0.8
Y94.134
Z-1.8 F60
X36.657 Z-1.852
X36.677 Z-1.9
X36.709 Z-1.941
X36.75 Z-1.973
X36.798 Z-1.993
X36.85 Z-2
X37.05 F150
G3 X37.25 Y94.334 I0 J0.2
X32.75 I-2.25 J0 F600
X37.25 I2.25 J0
X37.05 Y94.534 I-0.2 J0
G1 X36.85
X36.798 Z-1.993
X36.75 Z-1.973
X36.709 Z-1.941
X36.677 Z-1.9
X36.657 Z-1.852
X36.65 Z-1.8
Y94.134
Z-2.8 F60
X36.657 Z-2.852
X36.677 Z-2.9
X36.709 Z-2.941
X36.75 Z-2.973
X36.798 Z-2.993
X36.85 Z-3
X37.05 F150
G3 X37.25 Y94.334 I0 J0.2
X32.75 I-2.25 J0 F600
X37.25 I2.25 J0
X37.05 Y94.534 I-0.2 J0
G1 X36.85
X36.798 Z-2.993
X36.75 Z-2.973
X36.709 Z-2.941
X36.677 Z-2.9
X36.657 Z-2.852
X36.65 Z-2.8
Y94.134
Z-3.8 F60
X36.657 Z-3.852
X36.677 Z-3.9
X36.709 Z-3.941
X36.75 Z-3.973
X36.798 Z-3.993
X36.85 Z-4
X37.05 F150
G3 X37.25 Y94.334 I0 J0.2
X32.75 I-2.25 J0 F600
X37.25 I2.25 J0
X37.05 Y94.534 I-0.2 J0
G1 X36.85
X36.798 Z-3.993
X36.75 Z-3.973
X36.709 Z-3.941
X36.677 Z-3.9
X36.657 Z-3.852
X36.65 Z-3.8
Y94.134
Z-4.6 F60
X36.657 Z-4.652
X36.677 Z-4.7
X36.709 Z-4.741
X36.75 Z-4.773
X36.798 Z-4.793
X36.85 Z-4.8
X37.05 F150
G3 X37.25 Y94.334 I0 J0.2
X32.75 I-2.25 J0 F600
X37.25 I2.25 J0
X37.05 Y94.534 I-0.2 J0
G1 X36.85
X36.798 Z-4.793
X36.75 Z-4.773
X36.709 Z-4.741
X36.677 Z-4.7
X36.657 Z-4.652
X36.65 Z-4.6
G0 Z15

M9
M30
