(2D CONTOUR1)
(T17  D=2 CR=0 - ZMIN=-4.8 - FLAT END MILL)
G90 G94 G91.1 G40 G49 G17
G21

(SINGLE HOLE)
M5
M9
T17
(SINGLE FLUTE)
S14000 M3
G54
M8
G0 X-32.375 Y7.912
G43 Z15 H1
Z2
G1 Z-0.8 F240
X-32.368 Z-0.852
X-32.349 Z-0.9
X-32.317 Z-0.941
X-32.275 Z-0.973
X-32.227 Z-0.993
X-32.175 Z-1
X-31.975 F150
G3 X-31.775 Y8.112 I0 J0.2
X-33.275 I-0.75 J0 F1700
X-31.775 I0.75 J0
X-31.975 Y8.312 I-0.2 J0 F600
G1 X-32.175
X-32.227 Z-0.993
X-32.275 Z-0.973
X-32.317 Z-0.941
X-32.349 Z-0.9
X-32.368 Z-0.852
X-32.375 Z-0.8
Y7.912 F1700
Z-1.8 F240
X-32.368 Z-1.852
X-32.349 Z-1.9
X-32.317 Z-1.941
X-32.275 Z-1.973
X-32.227 Z-1.993
X-32.175 Z-2
X-31.975 F150
G3 X-31.775 Y8.112 I0 J0.2
X-33.275 I-0.75 J0 F1700
X-31.775 I0.75 J0
X-31.975 Y8.312 I-0.2 J0 F600
G1 X-32.175
X-32.227 Z-1.993
X-32.275 Z-1.973
X-32.317 Z-1.941
X-32.349 Z-1.9
X-32.368 Z-1.852
X-32.375 Z-1.8
Y7.912 F1700
Z-2.8 F240
X-32.368 Z-2.852
X-32.349 Z-2.9
X-32.317 Z-2.941
X-32.275 Z-2.973
X-32.227 Z-2.993
X-32.175 Z-3
X-31.975 F150
G3 X-31.775 Y8.112 I0 J0.2
X-33.275 I-0.75 J0 F1700
X-31.775 I0.75 J0
X-31.975 Y8.312 I-0.2 J0 F600
G1 X-32.175
X-32.227 Z-2.993
X-32.275 Z-2.973
X-32.317 Z-2.941
X-32.349 Z-2.9
X-32.368 Z-2.852
X-32.375 Z-2.8
Y7.912 F1700
Z-3.8 F240
X-32.368 Z-3.852
X-32.349 Z-3.9
X-32.317 Z-3.941
X-32.275 Z-3.973
X-32.227 Z-3.993
X-32.175 Z-4
X-31.975 F150
G3 X-31.775 Y8.112 I0 J0.2
X-33.275 I-0.75 J0 F1700
X-31.775 I0.75 J0
X-31.975 Y8.312 I-0.2 J0 F600
G1 X-32.175
X-32.227 Z-3.993
X-32.275 Z-3.973
X-32.317 Z-3.941
X-32.349 Z-3.9
X-32.368 Z-3.852
X-32.375 Z-3.8
Y7.912 F1700
Z-4.6 F240
X-32.368 Z-4.652
X-32.349 Z-4.7
X-32.317 Z-4.741
X-32.275 Z-4.773
X-32.227 Z-4.793
X-32.175 Z-4.8
X-31.975 F150
G3 X-31.775 Y8.112 I0 J0.2
X-33.275 I-0.75 J0 F1700
X-31.775 I0.75 J0
X-31.975 Y8.312 I-0.2 J0 F600
G1 X-32.175
X-32.227 Z-4.793
X-32.275 Z-4.773
X-32.317 Z-4.741
X-32.349 Z-4.7
X-32.368 Z-4.652
X-32.375 Z-4.6
G0 Z15

M9
M30
