(BOTTOM-MOUNTING-HOLES)
(T17  D=2 CR=0 - ZMIN=-4 - FLAT END MILL)
G90 G94 G91.1 G40 G49 G17
G21

(MISSING HOLES)
M5
M9
T17
(SINGLE FLUTE)
S20000 M3
G54
M8
G0 X36.44 Y95.164
G43 Z2 H1
G1 Z-0.8 F360
X36.445 Y95.168 Z-0.852
X36.461 Y95.18 Z-0.9
X36.487 Y95.199 Z-0.941
X36.52 Y95.224 Z-0.973
X36.559 Y95.253 Z-0.993
X36.6 Y95.284 Z-1
X36.76 Y95.404 F150
G3 X36.8 Y95.684 I-0.12 J0.16
X33.2 Y92.984 I-1.8 J-1.35 F1700
X36.8 Y95.684 I1.8 J1.35
X36.52 Y95.724 I-0.16 J-0.12 F600
G1 X36.36 Y95.604
X36.319 Y95.573 Z-0.993
X36.28 Y95.544 Z-0.973
X36.247 Y95.519 Z-0.941
X36.221 Y95.5 Z-0.9
X36.205 Y95.488 Z-0.852
X36.2 Y95.484 Z-0.8
X36.44 Y95.164 F1700
Z-1.8 F360
X36.445 Y95.168 Z-1.852
X36.461 Y95.18 Z-1.9
X36.487 Y95.199 Z-1.941
X36.52 Y95.224 Z-1.973
X36.559 Y95.253 Z-1.993
X36.6 Y95.284 Z-2
X36.76 Y95.404 F150
G3 X36.8 Y95.684 I-0.12 J0.16
X33.2 Y92.984 I-1.8 J-1.35 F1700
X36.8 Y95.684 I1.8 J1.35
X36.52 Y95.724 I-0.16 J-0.12 F600
G1 X36.36 Y95.604
X36.319 Y95.573 Z-1.993
X36.28 Y95.544 Z-1.973
X36.247 Y95.519 Z-1.941
X36.221 Y95.5 Z-1.9
X36.205 Y95.488 Z-1.852
X36.2 Y95.484 Z-1.8
X36.44 Y95.164 F1700
Z-2.8 F360
X36.445 Y95.168 Z-2.852
X36.461 Y95.18 Z-2.9
X36.487 Y95.199 Z-2.941
X36.52 Y95.224 Z-2.973
X36.559 Y95.253 Z-2.993
X36.6 Y95.284 Z-3
X36.76 Y95.404 F150
G3 X36.8 Y95.684 I-0.12 J0.16
X33.2 Y92.984 I-1.8 J-1.35 F1700
X36.8 Y95.684 I1.8 J1.35
X36.52 Y95.724 I-0.16 J-0.12 F600
G1 X36.36 Y95.604
X36.319 Y95.573 Z-2.993
X36.28 Y95.544 Z-2.973
X36.247 Y95.519 Z-2.941
X36.221 Y95.5 Z-2.9
X36.205 Y95.488 Z-2.852
X36.2 Y95.484 Z-2.8
X36.44 Y95.164 F1700
Z-3.8 F360
X36.445 Y95.168 Z-3.852
X36.461 Y95.18 Z-3.9
X36.487 Y95.199 Z-3.941
X36.52 Y95.224 Z-3.973
X36.559 Y95.253 Z-3.993
X36.6 Y95.284 Z-4
X36.76 Y95.404 F150
G3 X36.8 Y95.684 I-0.12 J0.16
X33.2 Y92.984 I-1.8 J-1.35 F1700
X36.8 Y95.684 I1.8 J1.35
X36.52 Y95.724 I-0.16 J-0.12 F600
G1 X36.36 Y95.604
X36.319 Y95.573 Z-3.993
X36.28 Y95.544 Z-3.973
X36.247 Y95.519 Z-3.941
X36.221 Y95.5 Z-3.9
X36.205 Y95.488 Z-3.852
X36.2 Y95.484 Z-3.8
G0 Z2
X36.44 Y25.164
G1 Z-0.8 F360
X36.445 Y25.168 Z-0.852
X36.461 Y25.18 Z-0.9
X36.487 Y25.199 Z-0.941
X36.52 Y25.224 Z-0.973
X36.559 Y25.253 Z-0.993
X36.6 Y25.284 Z-1
X36.76 Y25.404 F150
G3 X36.8 Y25.684 I-0.12 J0.16
X33.2 Y22.984 I-1.8 J-1.35 F1700
X36.8 Y25.684 I1.8 J1.35
X36.52 Y25.724 I-0.16 J-0.12 F600
G1 X36.36 Y25.604
X36.319 Y25.573 Z-0.993
X36.28 Y25.544 Z-0.973
X36.247 Y25.519 Z-0.941
X36.221 Y25.5 Z-0.9
X36.205 Y25.488 Z-0.852
X36.2 Y25.484 Z-0.8
X36.44 Y25.164 F1700
Z-1.8 F360
X36.445 Y25.168 Z-1.852
X36.461 Y25.18 Z-1.9
X36.487 Y25.199 Z-1.941
X36.52 Y25.224 Z-1.973
X36.559 Y25.253 Z-1.993
X36.6 Y25.284 Z-2
X36.76 Y25.404 F150
G3 X36.8 Y25.684 I-0.12 J0.16
X33.2 Y22.984 I-1.8 J-1.35 F1700
X36.8 Y25.684 I1.8 J1.35
X36.52 Y25.724 I-0.16 J-0.12 F600
G1 X36.36 Y25.604
X36.319 Y25.573 Z-1.993
X36.28 Y25.544 Z-1.973
X36.247 Y25.519 Z-1.941
X36.221 Y25.5 Z-1.9
X36.205 Y25.488 Z-1.852
X36.2 Y25.484 Z-1.8
X36.44 Y25.164 F1700
Z-2.8 F360
X36.445 Y25.168 Z-2.852
X36.461 Y25.18 Z-2.9
X36.487 Y25.199 Z-2.941
X36.52 Y25.224 Z-2.973
X36.559 Y25.253 Z-2.993
X36.6 Y25.284 Z-3
X36.76 Y25.404 F150
G3 X36.8 Y25.684 I-0.12 J0.16
X33.2 Y22.984 I-1.8 J-1.35 F1700
X36.8 Y25.684 I1.8 J1.35
X36.52 Y25.724 I-0.16 J-0.12 F600
G1 X36.36 Y25.604
X36.319 Y25.573 Z-2.993
X36.28 Y25.544 Z-2.973
X36.247 Y25.519 Z-2.941
X36.221 Y25.5 Z-2.9
X36.205 Y25.488 Z-2.852
X36.2 Y25.484 Z-2.8
X36.44 Y25.164 F1700
Z-3.8 F360
X36.445 Y25.168 Z-3.852
X36.461 Y25.18 Z-3.9
X36.487 Y25.199 Z-3.941
X36.52 Y25.224 Z-3.973
X36.559 Y25.253 Z-3.993
X36.6 Y25.284 Z-4
X36.76 Y25.404 F150
G3 X36.8 Y25.684 I-0.12 J0.16
X33.2 Y22.984 I-1.8 J-1.35 F1700
X36.8 Y25.684 I1.8 J1.35
X36.52 Y25.724 I-0.16 J-0.12 F600
G1 X36.36 Y25.604
X36.319 Y25.573 Z-3.993
X36.28 Y25.544 Z-3.973
X36.247 Y25.519 Z-3.941
X36.221 Y25.5 Z-3.9
X36.205 Y25.488 Z-3.852
X36.2 Y25.484 Z-3.8
G0 Z2
X-33.56 Y25.164
G1 Z-0.8 F360
X-33.555 Y25.168 Z-0.852
X-33.539 Y25.18 Z-0.9
X-33.513 Y25.199 Z-0.941
X-33.48 Y25.224 Z-0.973
X-33.441 Y25.253 Z-0.993
X-33.4 Y25.284 Z-1
X-33.24 Y25.404 F150
G3 X-33.2 Y25.684 I-0.12 J0.16
X-36.8 Y22.984 I-1.8 J-1.35 F1700
X-33.2 Y25.684 I1.8 J1.35
X-33.48 Y25.724 I-0.16 J-0.12 F600
G1 X-33.64 Y25.604
X-33.681 Y25.573 Z-0.993
X-33.72 Y25.544 Z-0.973
X-33.753 Y25.519 Z-0.941
X-33.779 Y25.5 Z-0.9
X-33.795 Y25.488 Z-0.852
X-33.8 Y25.484 Z-0.8
X-33.56 Y25.164 F1700
Z-1.8 F360
X-33.555 Y25.168 Z-1.852
X-33.539 Y25.18 Z-1.9
X-33.513 Y25.199 Z-1.941
X-33.48 Y25.224 Z-1.973
X-33.441 Y25.253 Z-1.993
X-33.4 Y25.284 Z-2
X-33.24 Y25.404 F150
G3 X-33.2 Y25.684 I-0.12 J0.16
X-36.8 Y22.984 I-1.8 J-1.35 F1700
X-33.2 Y25.684 I1.8 J1.35
X-33.48 Y25.724 I-0.16 J-0.12 F600
G1 X-33.64 Y25.604
X-33.681 Y25.573 Z-1.993
X-33.72 Y25.544 Z-1.973
X-33.753 Y25.519 Z-1.941
X-33.779 Y25.5 Z-1.9
X-33.795 Y25.488 Z-1.852
X-33.8 Y25.484 Z-1.8
X-33.56 Y25.164 F1700
Z-2.8 F360
X-33.555 Y25.168 Z-2.852
X-33.539 Y25.18 Z-2.9
X-33.513 Y25.199 Z-2.941
X-33.48 Y25.224 Z-2.973
X-33.441 Y25.253 Z-2.993
X-33.4 Y25.284 Z-3
X-33.24 Y25.404 F150
G3 X-33.2 Y25.684 I-0.12 J0.16
X-36.8 Y22.984 I-1.8 J-1.35 F1700
X-33.2 Y25.684 I1.8 J1.35
X-33.48 Y25.724 I-0.16 J-0.12 F600
G1 X-33.64 Y25.604
X-33.681 Y25.573 Z-2.993
X-33.72 Y25.544 Z-2.973
X-33.753 Y25.519 Z-2.941
X-33.779 Y25.5 Z-2.9
X-33.795 Y25.488 Z-2.852
X-33.8 Y25.484 Z-2.8
X-33.56 Y25.164 F1700
Z-3.8 F360
X-33.555 Y25.168 Z-3.852
X-33.539 Y25.18 Z-3.9
X-33.513 Y25.199 Z-3.941
X-33.48 Y25.224 Z-3.973
X-33.441 Y25.253 Z-3.993
X-33.4 Y25.284 Z-4
X-33.24 Y25.404 F150
G3 X-33.2 Y25.684 I-0.12 J0.16
X-36.8 Y22.984 I-1.8 J-1.35 F1700
X-33.2 Y25.684 I1.8 J1.35
X-33.48 Y25.724 I-0.16 J-0.12 F600
G1 X-33.64 Y25.604
X-33.681 Y25.573 Z-3.993
X-33.72 Y25.544 Z-3.973
X-33.753 Y25.519 Z-3.941
X-33.779 Y25.5 Z-3.9
X-33.795 Y25.488 Z-3.852
X-33.8 Y25.484 Z-3.8
G0 Z2
X-33.35 Y94.134
G1 Z-0.8 F360
X-33.343 Z-0.852
X-33.323 Z-0.9
X-33.291 Z-0.941
X-33.25 Z-0.973
X-33.202 Z-0.993
X-33.15 Z-1
X-32.95 F150
G3 X-32.75 Y94.334 I0 J0.2
X-37.25 I-2.25 J0 F1700
X-32.75 I2.25 J0
X-32.95 Y94.534 I-0.2 J0 F600
G1 X-33.15
X-33.202 Z-0.993
X-33.25 Z-0.973
X-33.291 Z-0.941
X-33.323 Z-0.9
X-33.343 Z-0.852
X-33.35 Z-0.8
Y94.134 F1700
Z-1.8 F360
X-33.343 Z-1.852
X-33.323 Z-1.9
X-33.291 Z-1.941
X-33.25 Z-1.973
X-33.202 Z-1.993
X-33.15 Z-2
X-32.95 F150
G3 X-32.75 Y94.334 I0 J0.2
X-37.25 I-2.25 J0 F1700
X-32.75 I2.25 J0
X-32.95 Y94.534 I-0.2 J0 F600
G1 X-33.15
X-33.202 Z-1.993
X-33.25 Z-1.973
X-33.291 Z-1.941
X-33.323 Z-1.9
X-33.343 Z-1.852
X-33.35 Z-1.8
Y94.134 F1700
Z-2.8 F360
X-33.343 Z-2.852
X-33.323 Z-2.9
X-33.291 Z-2.941
X-33.25 Z-2.973
X-33.202 Z-2.993
X-33.15 Z-3
X-32.95 F150
G3 X-32.75 Y94.334 I0 J0.2
X-37.25 I-2.25 J0 F1700
X-32.75 I2.25 J0
X-32.95 Y94.534 I-0.2 J0 F600
G1 X-33.15
X-33.202 Z-2.993
X-33.25 Z-2.973
X-33.291 Z-2.941
X-33.323 Z-2.9
X-33.343 Z-2.852
X-33.35 Z-2.8
Y94.134 F1700
Z-3.8 F360
X-33.343 Z-3.852
X-33.323 Z-3.9
X-33.291 Z-3.941
X-33.25 Z-3.973
X-33.202 Z-3.993
X-33.15 Z-4
X-32.95 F150
G3 X-32.75 Y94.334 I0 J0.2
X-37.25 I-2.25 J0 F1700
X-32.75 I2.25 J0
X-32.95 Y94.534 I-0.2 J0 F600
G1 X-33.15
X-33.202 Z-3.993
X-33.25 Z-3.973
X-33.291 Z-3.941
X-33.323 Z-3.9
X-33.343 Z-3.852
X-33.35 Z-3.8
G0 Z2

M9
M30
